app/dist/common/images/m-i-homes.svg

<svg height="18" viewBox="0 0 18 18" width="18" xmlns="http://www.w3.org/2000/svg"><path d="m0 0h18v18h-18z" fill="#3a4559"/><path d="m4 12v-3.83l5-3.28 5 3.28v3.83h-1v-3.5l-3.5-2.04v5.54h-1v-5.45l-3.5 2.23v3.22z" fill="#fff"/><path d="m11 4h-1v1.18l1 .61zm0 3.85-1-.52v4.67h1z" fill="#a8bbc9"/></svg>

<!-- by TradingView --><svg xmlns="http://www.w3.org/2000/svg" width="18" height="18" viewBox="0 0 18 18"><path fill="#3A4559" d="M0 0h18v18H0z"/><path d="M4 12V8.17l5-3.28 5 3.28V12h-1V8.5L9.5 6.46V12h-1V6.55L5 8.78V12H4z" fill="#fff"/><path d="M11 4h-1v1.18l1 .61V4zm0 3.85l-1-.52V12h1V7.85z" fill="#A8BBC9"/></svg>
